svgs/xarena.svg

<svg width="192" height="192" viewBox="0 0 192 192" fill="none" xmlns="http://www.w3.org/2000/svg">
<path d="M48.571 22L28.5293 31.6732L74.66 94.9118" stroke="black" stroke-width="12" stroke-linejoin="round"/>
<path d="M48.571 22L97.4962 26.8366L170 153.797L148.779 158.029L48.571 22Z" stroke="black" stroke-width="12" stroke-linejoin="round"/>
<path d="M45.7676 170L22 155.959L74.6601 94.9121H102.283" stroke="black" stroke-width="12" stroke-linejoin="round"/>
<path d="M102.283 94.9121L45.7676 170L97.4621 164.506L110.418 139.761L120.764 120" stroke="black" stroke-width="12" stroke-linejoin="round"/>
<path d="M148.779 158.029L118.717 150.17L110.418 139.761" stroke="black" stroke-width="12" stroke-linejoin="round"/>
<path d="M135.63 86L165 32.0319L144.621 29L131.435 35.0638L113 54.9091" stroke="black" stroke-width="10" stroke-linecap="round" stroke-linejoin="round"/>
</svg>

<svg xmlns="http://www.w3.org/2000/svg" width="192" height="192" fill="none" viewBox="0 0 192 192"><path stroke="#000" stroke-linejoin="round" stroke-width="12" d="m48.571 22-20.042 9.673L74.66 94.912M48.571 22l48.925 4.837L170 153.797l-21.221 4.232z"/><path stroke="#000" stroke-linejoin="round" stroke-width="12" d="M45.768 170 22 155.959l52.66-61.047h27.623"/><path stroke="#000" stroke-linejoin="round" stroke-width="12" d="M102.283 94.912 45.768 170l51.694-5.494 12.956-24.745L120.764 120m28.015 38.029-30.062-7.859-8.299-10.409"/><path stroke="#000" stroke-linecap="round" stroke-linejoin="round" stroke-width="10" d="M135.63 86 165 32.032 144.621 29l-13.186 6.064L113 54.909"/></svg>
